X:873
T:Reel 873
M:2/4
K:Cmaj
L:1/8
G,2 |C2 ECDE FD |EG FDEC DG, |C2 ECDE FD |EG FDEC DG, |C2 ECDC G,B, |C2 ECDC A,B, |C2 ECDC A,B, |CE DB,C2 |EG |AB cAB2 G2 |EG EDC2 EG |cB AGE2 EG |Ac BdcB A2 |cB cGA2 GE |F2 ECDC A,B, |CD CA,G,2 CE |DC DEC2 |
